images/guidepost_small.svg

<?xml version="1.0" encoding="UTF-8" standalone="no"?>
<!-- Created with Inkscape (http://www.inkscape.org/) -->

<svg xmlns:dc="http://purl.org/dc/elements/1.1/" xmlns:cc="http://creativecommons.org/ns#" xmlns:rdf="http://www.w3.org/1999/02/22-rdf-syntax-ns#" xmlns:svg="http://www.w3.org/2000/svg" xmlns="http://www.w3.org/2000/svg" xmlns:sodipodi="http://sodipodi.sourceforge.net/DTD/sodipodi-0.dtd" xmlns:inkscape="http://www.inkscape.org/namespaces/inkscape" width="50" height="50" viewBox="0 0 13.229166 13.229167" version="1.1" id="svg8" inkscape:version="0.92.3 (2405546, 2018-03-11)" sodipodi:docname="guidepost_small.svg">
  <defs id="defs2" />
  <sodipodi:namedview id="base" pagecolor="#ffffff" bordercolor="#666666" borderopacity="1.0" inkscape:pageopacity="0.0" inkscape:pageshadow="2" inkscape:zoom="32" inkscape:cx="24.126161" inkscape:cy="25.068141" inkscape:document-units="mm" inkscape:current-layer="svg8" showgrid="true" inkscape:window-width="1881" inkscape:window-height="1051" inkscape:window-x="0" inkscape:window-y="0" inkscape:window-maximized="1" inkscape:pagecheckerboard="true" units="px">
    <inkscape:grid type="xygrid" id="grid13930" units="px" spacingx="0.26458333" spacingy="0.26458333" />
  </sodipodi:namedview>
  <metadata id="metadata5">
    <rdf:RDF>
      <cc:Work rdf:about="">
        <dc:format>image/svg+xml</dc:format>
        <dc:type rdf:resource="http://purl.org/dc/dcmitype/StillImage" />
        <dc:title></dc:title>
      </cc:Work>
    </rdf:RDF>
  </metadata>
  <path sodipodi:nodetypes="ccccccccccccccc" inkscape:connector-curvature="0" id="path873" d="M 8.2020832,5.8208334 V 6.0854168 H 7.6729166 L 7.6729166,6.8791667 H 8.2020832 L 8.2020832,7.6729167 H 8.4666666 L 8.4666666,6.8791667 H 8.7312499 L 9.2686848,6.49056 L 8.8717324,6.191319 L 8.7312499,6.0854168 H 8.4666666 V 5.8208334 Z" style="opacity:0.5;fill:none;fill-opacity:1;fill-rule:evenodd;stroke:#ffffff;stroke-width:0.79374999;stroke-linecap:round;stroke-linejoin:round;stroke-miterlimit:4;stroke-dasharray:none;stroke-opacity:1" />
  <path style="fill:#000000;fill-opacity:1;fill-rule:evenodd;stroke:none;stroke-width:0.26458332;stroke-linecap:butt;stroke-linejoin:miter;stroke-miterlimit:4;stroke-dasharray:none;stroke-opacity:0.70588235" d="M 8.2020832,5.8208334 V 6.0854168 H 7.6729166 L 7.6729166,6.8791667 H 8.2020832 L 8.2020832,7.6729167 H 8.4666666 L 8.4666666,6.8791667 H 8.7312499 L 9.2604165,6.4988282 L 8.7312499,6.0854168 H 8.4666666 V 5.8208334 Z" id="guidepost" inkscape:connector-curvature="0" sodipodi:nodetypes="cccccccccccccc" />
</svg>

<svg xmlns="http://www.w3.org/2000/svg" width="50" height="50" viewBox="0 0 13.229 13.229">
    <path d="M8.202 5.82v.265h-.53v.794h.53v.794h.265v-.794h.264l.538-.388-.397-.3-.14-.106h-.265v-.264z" opacity=".5" fill="none" stroke="#fff" stroke-width=".794" stroke-linecap="round" stroke-linejoin="round"/>
    <path d="M8.202 5.82v.265h-.53v.794h.53v.794h.265v-.794h.264l.53-.38-.53-.414h-.264v-.264z" fill-rule="evenodd"/>
</svg>
